Origami/64x64/apps/hwinfo.svg

<svg width="64" height="64" version="1" xmlns="http://www.w3.org/2000/svg">
 <path d="m4 56v2c0 1.662 1.338 3 3 3h50c1.662 0 3-1.338 3-3v-2c0 1.662-1.338 3-3 3h-50c-1.662 0-3-1.338-3-3z" style="opacity:.2"/>
 <rect transform="matrix(0,-1,-1,0,0,0)" x="-60" y="-60" width="56" height="56" rx="3" ry="3" style="fill:#37a0f2"/>
 <g transform="matrix(3,0,0,-3,-1628,-1006)" style="opacity:.2">
  <path d="m552-353v8.6667h2v-8.6667zm0 10.667v2h2v-2z"/>
 </g>
 <path d="m7 4c-1.662 0-3 1.338-3 3v1c0-1.662 1.338-3 3-3h50c1.662 0 3 1.338 3 3v-1c0-1.662-1.338-3-3-3h-50z" style="fill:#ffffff;opacity:.1"/>
 <g transform="matrix(3,0,0,-3,-1628,-1007)" style="fill:#ffffff">
  <path d="m552-353v8.6667h2v-8.6667zm0 10.667v2h2v-2z"/>
 </g>
</svg>

<svg xmlns="http://www.w3.org/2000/svg" width="64" height="64" version="1">
 <path style="opacity:0.2" d="m 4,56 0,2 c 0,1.662 1.338,3 3,3 l 50,0 c 1.662,0 3,-1.338 3,-3 l 0,-2 c 0,1.662 -1.338,3 -3,3 L 7,59 C 5.338,59 4,57.662 4,56 Z"/>
 <rect style="fill:#37a0f2" width="56" height="56" x="-60" y="-60" rx="3" ry="3" transform="matrix(0,-1,-1,0,0,0)"/>
 <g style="opacity:0.2" transform="matrix(3,0,0,-3,-1628,-1006)">
  <path d="m 552,-353 0,8.6667 2,0 0,-8.6667 z m 0,10.667 0,2 2,0 0,-2 z"/>
 </g>
 <path style="opacity:0.1;fill:#ffffff" d="M 7 4 C 5.338 4 4 5.338 4 7 L 4 8 C 4 6.338 5.338 5 7 5 L 57 5 C 58.662 5 60 6.338 60 8 L 60 7 C 60 5.338 58.662 4 57 4 L 7 4 z"/>
 <g style="fill:#ffffff" transform="matrix(3,0,0,-3,-1628,-1007)">
  <path d="m 552,-353 0,8.6667 2,0 0,-8.6667 z m 0,10.667 0,2 2,0 0,-2 z"/>
 </g>
</svg>
